src/lib/packages/icons/src/assets/filled/comment-search.svg

<svg width="24" height="24" viewBox="0 0 24 24" fill="none" xmlns="http://www.w3.org/2000/svg">
<path d="M13.583 11.417C13.583 12.612 12.611 13.584 11.417 13.584C10.222 13.584 9.25 12.612 9.25 11.417C9.25 10.222 10.222 9.25 11.417 9.25C12.611 9.25 13.583 10.222 13.583 11.417ZM21 12.001C21 17.002 16.97 20.002 12 20.002C10.72 20.002 9.50991 19.802 8.40991 19.422C7.06991 20.852 4.87996 21.0419 3.45996 20.9919C3.02996 20.9819 2.83992 20.432 3.16992 20.152C4.25992 19.272 4.79995 18.172 4.94995 17.212C3.72995 15.892 3 14.121 3 12.001C3 6.99998 7.03 4 12 4C16.97 4 21 6.99998 21 12.001ZM16.03 14.97L14.48 13.42C14.858 12.843 15.082 12.156 15.082 11.416C15.082 9.39502 13.437 7.74902 11.416 7.74902C9.39402 7.74902 7.74902 9.39402 7.74902 11.416C7.74902 13.438 9.39402 15.083 11.416 15.083C12.156 15.083 12.8429 14.859 13.4189 14.48L14.968 16.0291C15.114 16.1751 15.306 16.249 15.498 16.249C15.69 16.249 15.8821 16.1761 16.0281 16.0291C16.3231 15.7371 16.323 15.263 16.03 14.97Z" fill="currentColor"/>
</svg>

<svg xmlns="http://www.w3.org/2000/svg" width="24" height="24" fill="none"><path fill="currentColor" d="M13.583 11.417a2.17 2.17 0 0 1-2.166 2.167 2.17 2.17 0 0 1-2.167-2.167 2.17 2.17 0 0 1 2.167-2.167 2.17 2.17 0 0 1 2.166 2.167Zm7.417.584c0 5.001-4.03 8.001-9 8.001-1.28 0-2.49-.2-3.59-.58-1.34 1.43-3.53 1.62-4.95 1.57-.43-.01-.62-.56-.29-.84 1.09-.88 1.63-1.98 1.78-2.94C3.73 15.892 3 14.121 3 12.001 3 7 7.03 4 12 4s9 3 9 8.001Zm-4.97 2.969-1.55-1.55a3.645 3.645 0 0 0 .602-2.004 3.672 3.672 0 0 0-3.666-3.667 3.671 3.671 0 0 0-3.667 3.667 3.671 3.671 0 0 0 3.667 3.667c.74 0 1.427-.224 2.003-.603l1.549 1.55a.748.748 0 0 0 1.06 0 .746.746 0 0 0 .002-1.06Z"/></svg>
